X: 2
T: Missa L'homme arm\'e quarti toni / Gloria
N: Derived from Com1002b-Missa_Lhomme_arme-Gloria.krn
C: Loyset Comp\`ere
%%abc-version 2.0
%%abcx-abcm2ps-target-version 5.9.1 (29 Sep 2008)
%%abc-creator hum2abc beta
%%abcx-conversion-date 2019/02/16 20:28:09
%%abc-edited-by Jesse Rodin
%%abc-edited-by Jesse Rodin; Victoria Chang 2012/02/25
%%abcx-initial-encoding-date 2012/02/25/
%%humdrum-veritas 825228927
%%humdrum-veritas-data 195881942
%%linebreak <none>
%%barnumbers 0
L: 1/4
M: 3/1
Q: 1/2=120
%%staves [1 2 3 4]
V: 1 clef=treble
V: 2 clef=treble-8
V: 3 clef=treble-8
V: 4 clef=bass
K: C
[V:1] z12 | 
[V:2] E4E4E4 | 
[V:3] z12 | 
[V:4] z12 | 
[V:1] z12 | 
[V:2] A8A4 | 
[V:3] z12 | 
[V:4] A,,4A,,4A,,4 | 
[V:1] z12 | 
[V:2] B2A3GFEF4 | 
[V:3] z12 | 
[V:4] D,8D,4 | 
[V:1] z12 | 
[V:2] E3FG2A4^G2 | 
[V:3] z12 | 
[V:4] C,4B,,2A,,2B,,4 | 
[V:1] z12 | 
[V:2] A8G4 | 
[V:3] E8E4 | 
[V:4] A,,6B,,2C,4 | 
[V:1] z4E8 | 
[V:2] F2EDC4c4- | 
[V:3] A8A4 | 
[V:4] D,4A,,4A,,B,,C,D, | 
[V:1] E4A8 | 
[V:2] c4A2d3cA2- | 
[V:3] G4F3EF4 | 
[V:4] E,2C,2D,8 | 
[V:1] A4G4F3E | 
[V:2] ABc2G2c4BA | 
[V:3] E8z4 | 
[V:4] A,,4C,4D,4- | 
[V:1] F4E3FG2A2- | 
[V:2] B4c6A2 | 
[V:3] z12 | 
[V:4] D,4C,3D,E,2F,2 | 
[V:1] A2^G2A2c2c2c2 | 
[V:2] B4A4z2c2 | 
[V:3] z2E2E2E2A4 | 
[V:4] E,4A,,8 | 
[V:1] A4z4G4 | 
[V:2] c2c2A2A2c2c2 | 
[V:3] AGFEF4E4- | 
[V:4] z2A,,2D,2D,2C,2C,2 | 
[V:1] G2G2E2E2D4 | 
[V:2] c2c2G8- | 
[V:3] E8B4 | 
[V:4] C,2C,2C,2C,2G,,4- | 
[V:1] D8E3F | 
[V:2] G4z4G4 | 
[V:3] B2B2B2B2E4- | 
[V:4] G,,4G,,4C,4- | 
[V:1] G2A4G3^FF2 | 
[V:2] c8A2A2 | 
[V:3] E4z4z4 | 
[V:4] C,4C,2C,2D,4 | 
[V:1] G4z4G4 | 
[V:2] G8z4 | 
[V:3] B4B2B2B2B2 | 
[V:4] z4E,4E,2E,2 | 
[V:1] G2G2A2A2G4 | 
[V:2] G4c6c2 | 
[V:3] E12 | 
[V:4] E,2E,2A,,4C,4 | 
[V:1] z2c4B3AA2- | 
[V:2] e2e2d4dcBA | 
[V:3] z12 | 
[V:4] C,4G,,4z4 | 
[V:1] A2^G2A8 | 
[V:2] B4A4z2c2 | 
[V:3] z12 | 
[V:4] z12 | 
[V:1] G4E2F3EE2- | 
[V:2] c2B2A4G2E2 | 
[V:3] z12 | 
[V:4] z12 | 
[V:1] E2D2E4z2A2 | 
[V:2] F4E2A2A2A2 | 
[V:3] z12 | 
[V:4] z12 | 
[V:1] A2A2D8 | 
[V:2] D4A4B2B2 | 
[V:3] z12 | 
[V:4] z2D,2D,2D,2G,,4 | 
[V:1] z12 | 
[V:2] AGFED2A3GG2- | 
[V:3] z12 | 
[V:4] D,2D,2D,2C,3B,,A,,G,, | 
[V:1] z4z4E4- | 
[V:2] G2^F2G8 | 
[V:3] z12 | 
[V:4] A,,4G,,4C,4- | 
[V:1] E2E2E3FG2A2- | 
[V:2] c6c2c4 | 
[V:3] z12 | 
[V:4] C,2C,2C,4z4 | 
[V:1] A2^G2A4z4 | 
[V:2] B4A8 | 
[V:3] z12 | 
[V:4] z12 | 
[V:1] c4B4A2GF | 
[V:2] z4G4A3B | 
[V:3] z12 | 
[V:4] z12 | 
[V:1] E2A3GG4^F2 | 
[V:2] c2d2cBAGA4 | 
[V:3] z12 | 
[V:4] z4z4D,4 | 
[V:1] G4z4z4 | 
[V:2] G4GABcdef2 | 
[V:3] z12 | 
[V:4] E,8D,4 | 
[V:1] z4z4D4 | 
[V:2] e2d4c4B2 | 
[V:3] z12 | 
[V:4] C,2G,2E,2C,2D,4 | 
[V:1] E8E4 | 
[V:2] c4z2G3ABA/B/ | 
[V:3] z12 | 
[V:4] C,8z4 | 
[V:1] C2G2FEE4D2 | 
[V:2] c3BA2G2F4 | 
[V:3] z12 | 
[V:4] z12 | 
[V:1] E8G4- | 
[V:2] E12 | 
[V:3] B12- | 
[V:4] z12 | 
[V:1] G2G2G4G4 | 
[V:2] e4e2e2e4 | 
[V:3] B8B4 | 
[V:4] E,8E,4 | 
[V:1] A8z4 | 
[V:2] c8B4 | 
[V:3] A8G4 | 
[V:4] A,,8E,4 | 
[V:1] z12 | 
[V:2] GABcd2A4B2 | 
[V:3] G4F4F4 | 
[V:4] E,4D,4D,4 | 
[V:1] z12 | 
[V:2] c2BAG2A4^G2 | 
[V:3] E8z4 | 
[V:4] C,6A,,2B,,4 | 
[V:1] z4z4G4 | 
[V:2] A4e4e4- | 
[V:3] z4z4B4 | 
[V:4] A,,8E,4 | 
[V:1] G8G4 | 
[V:2] e4e4e4 | 
[V:3] B8B4 | 
[V:4] E,8E,4 | 
[V:1] A3GE2F2G4 | 
[V:2] z2e4dcB4 | 
[V:3] A8G4 | 
[V:4] A,,3B,,C,2D,2E,4 | 
[V:1] C2F3EE4D2 | 
[V:2] A4z4A4 | 
[V:3] E2F2G2A2F4 | 
[V:4] A,,2D,2C,4D,4 | 
[V:1] E12 ||  
[V:2] B12 ||  
[V:3] E12 ||  
[V:4] z2G,4F,E,E,4 ||  
[V:1]  [K:C] [K:clef=treble][M:2/1]z8 | 
[V:2]  [K:C] [K:clef=treble-8][M:2/1]E8 | 
[V:3]  [K:C] [K:clef=treble-8][M:2/1]z8 | 
[V:4]  [K:C] [K:clef=bass][M:2/1]z8 | 
[V:1] z8 | 
[V:2] E4A4- | 
[V:3] z8 | 
[V:4] A,,8 | 
[V:1] z8 | 
[V:2] A4A4 | 
[V:3] z8 | 
[V:4] A,,4D,4- | 
[V:1] z8 | 
[V:2] B2A4GF | 
[V:3] z8 | 
[V:4] D,4D,4 | 
[V:1] z8 | 
[V:2] G2A2D4 | 
[V:3] z8 | 
[V:4] E,2D,4C,B,, | 
[V:1] z8 | 
[V:2] z2D4E2 | 
[V:3] z8 | 
[V:4] C,2D,2G,,4 | 
[V:1] z8 | 
[V:2] D2G4F2 | 
[V:3] z8 | 
[V:4] z2G,,4A,,2 | 
[V:1] z8 | 
[V:2] G4z2G2- | 
[V:3] z8 | 
[V:4] G,,2C,4B,,2 | 
[V:1] z8 | 
[V:2] G2A2G2c2- | 
[V:3] z8 | 
[V:4] C,4z2C,2- | 
[V:1] z8 | 
[V:2] c2B2c2A2 | 
[V:3] z8 | 
[V:4] C,2D,2C,2F,2- | 
[V:1] z8 | 
[V:2] G4A2B2- | 
[V:3] z8 | 
[V:4] F,2E,2F,2D,2 | 
[V:1] z8 | 
[V:2] B2A4^G2 | 
[V:3] z8 | 
[V:4] C,2B,,A,,B,,4 | 
[V:1] z8 | 
[V:2] A4z2A2- | 
[V:3] z8 | 
[V:4] A,,8 | 
[V:1] z8 | 
[V:2] ABc3BAG | 
[V:3] z8 | 
[V:4] z2A,,3B,,C,2- | 
[V:1] z8 | 
[V:2] A2G4^F2 | 
[V:3] z8 | 
[V:4] C,B,,A,,G,,A,,4 | 
[V:1] z8 | 
[V:2] G4z2G2- | 
[V:3] z8 | 
[V:4] G,,4C,4- | 
[V:1] z8 | 
[V:2] G2A2G2c2- | 
[V:3] z8 | 
[V:4] C,4C,3D, | 
[V:1] z8 | 
[V:2] c2B3AGF | 
[V:3] z8 | 
[V:4] E,4z2E,2- | 
[V:1] z8 | 
[V:2] E4z2B2- | 
[V:3] z8 | 
[V:4] E,D,C,B,,C,2D,2 | 
[V:1] z8 | 
[V:2] B2A4^G2 | 
[V:3] z8 | 
[V:4] A,,4B,,4 | 
[V:1] z8 | 
[V:2] A2c2B2A2- | 
[V:3] z8 | 
[V:4] A,,4z2A,,2 | 
[V:1] z8 | 
[V:2] AG/F/E3FG2 | 
[V:3] z8 | 
[V:4] C,4C,D,E,F, | 
[V:1] z8 | 
[V:2] C3DEFG2- | 
[V:3] z8 | 
[V:4] G,2C,3D,E,F, | 
[V:1] z8 | 
[V:2] GABcd2c2- | 
[V:3] z8 | 
[V:4] E,3D,/C,/B,,2C,2 | 
[V:1] z8 | 
[V:2] c2B2c4 | 
[V:3] z8 | 
[V:4] D,4C,4- | 
[V:1] z8 | 
[V:2] z2G2A2c2 | 
[V:3] z8 | 
[V:4] C,4z2C,2 | 
[V:1] z8 | 
[V:2] B4A4- | 
[V:3] z8 | 
[V:4] D,2E,2F,2E,D, | 
[V:1] z8 | 
[V:2] A4G2E2 | 
[V:3] z8 | 
[V:4] C,2F,3E,E,2- | 
[V:1] z8 ||  
[V:2] F4E4 ||  
[V:3] z8 ||  
[V:4] E,2D,2E,4 ||  
[V:1]  [K:C] [K:clef=treble][M:2/1]z8 | 
[V:2]  [K:C] [K:clef=treble-8][M:2/1]c4c2BA | 
[V:3]  [K:C] [K:clef=treble-8][M:2/1]e8 | 
[V:4]  [K:C] [K:clef=bass][M:2/1]z8 | 
[V:1] z8 | 
[V:2] G2A2E4 | 
[V:3] e4e4 | 
[V:4] z8 | 
[V:1] z8 | 
[V:2] z8 | 
[V:3] d8 | 
[V:4] G,4G,2F,E, | 
[V:1] z4z2G2- | 
[V:2] z8 | 
[V:3] d4e4- | 
[V:4] D,2G,2C,3D, | 
[V:1] GABcB2G2- | 
[V:2] z8 | 
[V:3] e4e4 | 
[V:4] E,4z2E,2- | 
[V:1] G2FED2G2 | 
[V:2] z4G4 | 
[V:3] B8 | 
[V:4] E,2D,C,B,,2E,2 | 
[V:1] C4z2G2- | 
[V:2] A4B4 | 
[V:3] e8 | 
[V:4] A,,4E,4 | 
[V:1] G2A4B2- | 
[V:2] c4A2d2- | 
[V:3] e4d4- | 
[V:4] C,4D,4- | 
[V:1] BAA4^G2 | 
[V:2] dcA2B4 | 
[V:3] d4d4 | 
[V:4] D,4z4 | 
[V:1] A6B2 | 
[V:2] A4z4 | 
[V:3] e8- | 
[V:4] z4A,,4- | 
[V:1] c4G4 | 
[V:2] A4E2G2- | 
[V:3] e8 | 
[V:4] A,,2B,,2C,4 | 
[V:1] z2G3FED | 
[V:2] G2FED2G2- | 
[V:3] d8 | 
[V:4] G,,8 | 
[V:1] C2G,3A,B,C | 
[V:2] GFEDC2G2- | 
[V:3] z4e4 | 
[V:4] C,4E,4 | 
[V:1] D2C4B,2 | 
[V:2] G2FEF4 | 
[V:3] f8 | 
[V:4] D,8 | 
[V:1] C8 | 
[V:2] G2A2E2A2- | 
[V:3] e8 | 
[V:4] C,6B,,A,, | 
[V:1] z8 | 
[V:2] A2^G^F^G4 | 
[V:3] d8 | 
[V:4] B,,4B,,4 | 
[V:1] z8 | 
[V:2] A4e4 | 
[V:3] c8 | 
[V:4] A,,8 | 
[V:1] G8 | 
[V:2] e2e2e2e2 | 
[V:3] B8- | 
[V:4] E,4E,2E,2 | 
[V:1] G2G2G2G2 | 
[V:2] e8 | 
[V:3] B8 | 
[V:4] E,2E,2E,2E,2 | 
[V:1] G3AB2A2- | 
[V:2] e4d3c | 
[V:3] z8 | 
[V:4] C,4z2D,2- | 
[V:1] AGG4^F2 | 
[V:2] B2c2A4 | 
[V:3] z8 | 
[V:4] D,2C,2D,4 | 
[V:1] G4z4 | 
[V:2] G8 | 
[V:3] z4e4- | 
[V:4] G,,4C,4- | 
[V:1] G6G2 | 
[V:2] c6c2 | 
[V:3] e2e2e4- | 
[V:4] C,2C,2C,4- | 
[V:1] G4G4 | 
[V:2] c4c4 | 
[V:3] e4e4 | 
[V:4] C,4C,4 | 
[V:1] G4G4 | 
[V:2] B4B4 | 
[V:3] d4d4 | 
[V:4] G,4G,4 | 
[V:1] A4F4 | 
[V:2] A4A4 | 
[V:3] d4d4 | 
[V:4] F,4F,4 | 
[V:1] G8- | 
[V:2] B8 | 
[V:3] e8 | 
[V:4] E,8 | 
[V:1] G8 | 
[V:2] E6F2 | 
[V:3] e8 | 
[V:4] C,8 | 
[V:1] G4D4- | 
[V:2] G8 | 
[V:3] B8- | 
[V:4] G,,8- | 
[V:1] D4z4 | 
[V:2] z4G4- | 
[V:3] B8 | 
[V:4] G,,8- | 
[V:1] G8 | 
[V:2] G4B4 | 
[V:3] z8 | 
[V:4] G,,8 | 
[V:1] G4F4- | 
[V:2] B4A4 | 
[V:3] z8 | 
[V:4] z4D,4- | 
[V:1] F4F4 | 
[V:2] A2A4GF | 
[V:3] z8 | 
[V:4] D,4D,4 | 
[V:1] G8 | 
[V:2] E4z2E2- | 
[V:3] e8 | 
[V:4] C,8 | 
[V:1] G4D2F2- | 
[V:2] EFGAB2A2- | 
[V:3] e4d4- | 
[V:4] C,4D,4- | 
[V:1] FGA4B2 | 
[V:2] AGFEF2D2 | 
[V:3] d4d4 | 
[V:4] D,4D,4 | 
[V:1] c3BAGA2 | 
[V:2] A3Bc2C2- | 
[V:3] e8 | 
[V:4] A,,8 | 
[V:1] G3F/E/D3E | 
[V:2] CDEFGABc | 
[V:3] e4B4- | 
[V:4] z8 | 
[V:1] D2G4FE | 
[V:2] d2G2A4 | 
[V:3] B4z4 | 
[V:4] z4D,4 | 
[V:1] G4z4 | 
[V:2] z2G3ABc | 
[V:3] z8 | 
[V:4] E,8 | 
[V:1] z8 | 
[V:2] B2AG/F/E3F | 
[V:3] z8 | 
[V:4] D,4C,4 | 
[V:1] z8 | 
[V:2] G2A4^G2 | 
[V:3] z8 | 
[V:4] B,,8 | 
[V:1] C4C2C2 | 
[V:2] A8 | 
[V:3] z4e4 | 
[V:4] A,,8 | 
[V:1] D4A,2B,2- | 
[V:2] z2A2A2F2 | 
[V:3] f8 | 
[V:4] D,4D,2D,2 | 
[V:1] B,A,A,4G,2 | 
[V:2] G2A2D2G2- | 
[V:3] e4d4 | 
[V:4] C,4B,,4 | 
[V:1] A,4z4 | 
[V:2] G2^FE^F4 | 
[V:3] c8 | 
[V:4] A,,4A,,4 | 
[V:1] D4D4 | 
[V:2] G8 | 
[V:3] B8- | 
[V:4] G,,4G,,2G,,2- | 
[V:1] D2D4D2 | 
[V:2] G4G4 | 
[V:3] B8 | 
[V:4] G,,2G,,2G,,2G,,2 | 
[V:1] E4E2E2- | 
[V:2] G2G4G2 | 
[V:3] z8 | 
[V:4] C,4C,2C,2- | 
[V:1] E2E2E4 | 
[V:2] c4c2A2- | 
[V:3] z8 | 
[V:4] C,2C,2C,4 | 
[V:1] E2F2G4- | 
[V:2] A2A2G3A | 
[V:3] z4E4 | 
[V:4] C,2D,2E,4 | 
[V:1] G4z4 | 
[V:2] B2c2B4 | 
[V:3] E4E4 | 
[V:4] z8 | 
[V:1] z4E4 | 
[V:2] A4c4 | 
[V:3] A8 | 
[V:4] A,,8 | 
[V:1] E8 | 
[V:2] c4c4 | 
[V:3] A4G4 | 
[V:4] C,8 | 
[V:1] D8 | 
[V:2] A8- | 
[V:3] F8 | 
[V:4] D,8 | 
[V:1] C8 | 
[V:2] A8 | 
[V:3] E8 | 
[V:4] A,,8 | 
[V:1] G8 | 
[V:2] B4B4 | 
[V:3] z4B4 | 
[V:4] E,8- | 
[V:1] G4G4 | 
[V:2] E4B4- | 
[V:3] B4E4 | 
[V:4] E,8 | 
[V:1] G6G2 | 
[V:2] B2B2E4 | 
[V:3] B6B2 | 
[V:4] E,4E,4 | 
[V:1] G4G4 | 
[V:2] e4e2e2 | 
[V:3] E4z4 | 
[V:4] E,6E,2 | 
[V:1] G6G2 | 
[V:2] e4d4- | 
[V:3] B4B2B2 | 
[V:4] E,4z4 | 
[V:1] G4F4- | 
[V:2] d4c4- | 
[V:3] B4A4- | 
[V:4] z8 | 
[V:1] F2E2E4- | 
[V:2] c4B4 | 
[V:3] A4G4 | 
[V:4] z8 | 
[V:1] E2DCD4 | 
[V:2] A8 | 
[V:3] F8 | 
[V:4] z8 | 
[V:1] E4G4- | 
[V:2] z4B4- | 
[V:3] E8 | 
[V:4] E,4E,2E,2 | 
[V:1] G4F4- | 
[V:2] B2c2d4 | 
[V:3] z8 | 
[V:4] E,4D,4- | 
[V:1] F4E4 | 
[V:2] A2B2c2A2- | 
[V:3] z8 | 
[V:4] D,4C,4 | 
[V:1] D8 | 
[V:2] A2^G^F^G4 | 
[V:3] B4B4 | 
[V:4] B,,8 | 
[V:1] C8 | 
[V:2] A8 | 
[V:3] E8 | 
[V:4] A,,8 | 
[V:1] G8- | 
[V:2] B4e4- | 
[V:3] z4B4 | 
[V:4] E,8 | 
[V:1] G8 | 
[V:2] e2d2e4 | 
[V:3] B4B4 | 
[V:4] E,8 | 
[V:1] E4F4- | 
[V:2] c4d4 | 
[V:3] A8 | 
[V:4] A,,4D,4 | 
[V:1] F2E2E4- | 
[V:2] B4c4 | 
[V:3] G4E4 | 
[V:4] E,4C,4 | 
[V:1] E4D4 | 
[V:2] A8 | 
[V:3] F8 | 
[V:4] D,8 | 
[V:1] E8- | 
[V:2] B2c3BA2 | 
[V:3] E8- | 
[V:4] z2A,,3B,,C,2- | 
[V:1] E8 | 
[V:2] G2A2E4 | 
[V:3] E8- | 
[V:4] C,B,,A,,2G,,2A,,2 | 
[V:1] E8 |]  
[V:2] B8 |]  
[V:3] E8 |]  
[V:4] E,,8 & E,8 |]  



